app/images/dest/next-page.svg

<svg width="15" height="16" viewBox="0 0 15 16" fill="none" xmlns="http://www.w3.org/2000/svg">
<path d="M13.8086 8.28325L7.40461 14.6872C7.20448 14.8874 6.93765 14.8874 6.73753 14.6872C6.5374 14.4871 6.5374 14.2203 6.73753 14.0202L12.808 7.94971L6.73753 1.87926C6.5374 1.67914 6.5374 1.4123 6.73753 1.21218C6.93765 1.01206 7.20448 1.01206 7.40461 1.21218L13.8086 7.61617C14.0087 7.81629 14.0087 8.08312 13.8086 8.28325Z" fill="black"/>
</svg>

<svg width="15" height="16" fill="none" xmlns="http://www.w3.org/2000/svg"><path d="M13.809 8.283l-6.404 6.404c-.2.2-.467.2-.667 0s-.2-.467 0-.667l6.07-6.07-6.07-6.07c-.2-.2-.2-.468 0-.668s.466-.2.667 0l6.404 6.404c.2.2.2.467 0 .667z" fill="#000"/></svg>
